lib/logo_tmp/nrk-logo-nrk-folkemusikk-title-below-on-dark.svg

<svg width="112" height="35" viewBox="0 0 112 35" fill="none" xmlns="http://www.w3.org/2000/svg">
<path d="M0 14.3333V0.334605H4.59339V14.3333H0ZM10.8428 2.56258L13.4844 14.3333H8.45737L5.30307 0.334605H8.12254C8.76907 0.326214 9.39641 0.554123 9.88691 0.975455C10.3782 1.37911 10.7158 1.93948 10.8428 2.56258ZM14.1744 14.3333V0.334605H18.7678V14.3333H14.1744ZM22.2372 5.65812C21.7422 5.66294 21.2552 5.53343 20.828 5.28346C20.4064 5.03981 20.0563 4.68962 19.8127 4.26803C19.5624 3.84072 19.4329 3.35355 19.4378 2.85837C19.4321 2.3662 19.5618 1.88194 19.8127 1.4585C20.0589 1.04149 20.4086 0.695109 20.828 0.452939C21.2553 0.203253 21.7423 0.073767 22.2372 0.0782812C22.7292 0.0729823 23.2133 0.202584 23.6369 0.452939C24.0521 0.697232 24.3981 1.04332 24.6424 1.4585C24.893 1.88206 25.0226 2.36624 25.0172 2.85837C25.0218 3.35352 24.8923 3.8406 24.6424 4.26803C24.4007 4.68777 24.0542 5.03766 23.6369 5.28346C23.2133 5.53431 22.7289 5.66394 22.2366 5.65812H22.2372ZM25.7269 14.3333V0.334605H30.3207V14.3333H25.7269ZM36.136 7.98461C36.1489 7.99819 36.2475 8.1592 36.4317 8.46765C36.6159 8.7761 36.8558 9.17046 37.1513 9.65067C37.447 10.1307 37.759 10.64 38.0874 11.1787C38.4157 11.7174 38.7247 12.2268 39.0143 12.7067C39.3028 13.1867 39.6313 13.7289 40 14.3333H34.9531C34.6375 13.8207 34.3515 13.3574 34.0952 12.9433C33.8389 12.5293 33.5665 12.0823 33.2778 11.6026C32.9884 11.1233 32.7024 10.6566 32.4196 10.2027C32.1368 9.74879 31.8938 9.35121 31.6905 9.0099C31.4863 8.66837 31.3449 8.43831 31.2663 8.31979C31.0713 8.02568 30.9559 7.68601 30.9315 7.33397C30.951 6.99609 31.0597 6.66947 31.2466 6.3873C31.3254 6.25585 31.47 6.0225 31.6803 5.68732C31.8906 5.35214 32.137 4.95456 32.4196 4.49451C32.7021 4.03446 32.9882 3.56454 33.2778 3.08477C33.5674 2.605 33.8398 2.15477 34.0952 1.73416C34.3519 1.31398 34.6379 0.84735 34.9531 0.334284H40L36.0962 6.70275C35.9754 6.89183 35.9073 7.10974 35.8991 7.33397C35.9121 7.56938 35.9942 7.7957 36.1353 7.98461H36.136Z" fill="white"/>
<path d="M0 34.3351H2.07028V28.5581H7.35434L7.57128 26.843H2.07028V22.0712H9.22751V20.3361H0V34.3351Z" fill="#FFC7BD"/>
<path d="M17.4396 24.6943C16.6181 24.2578 15.6979 24.0404 14.7679 24.0633C13.8293 24.0419 12.9015 24.2662 12.0763 24.714C11.3147 25.1404 10.692 25.777 10.2824 26.5477C9.83714 27.4124 9.61661 28.3752 9.64119 29.3475C9.61615 30.3121 9.82237 31.2687 10.2426 32.1374C10.6202 32.8956 11.2227 33.5188 11.9678 33.9217C12.7698 34.3419 13.6652 34.5522 14.5704 34.533C15.5181 34.5518 16.4548 34.3279 17.2916 33.8827C18.0726 33.4562 18.7131 32.8122 19.1352 32.0289C19.5932 31.154 19.8206 30.1767 19.7957 29.1894C19.8183 28.2491 19.6082 27.3179 19.1841 26.4784C18.7913 25.7246 18.1843 25.104 17.4396 24.6943ZM17.3209 31.2994C17.0998 31.812 16.7243 32.2428 16.2467 32.5317C15.7671 32.8066 15.222 32.9464 14.6693 32.9362C14.1273 32.9498 13.593 32.806 13.1311 32.5222C12.6743 32.2185 12.3175 31.7864 12.1058 31.2804C11.8377 30.6309 11.7102 29.9321 11.7315 29.2299C11.7083 28.5465 11.8361 27.8664 12.1058 27.2381C12.327 26.7443 12.6956 26.331 13.161 26.0551C13.6584 25.7813 14.2198 25.6452 14.7873 25.6607C15.2306 25.6496 15.671 25.7337 16.0791 25.9072C16.4364 26.0684 16.748 26.3158 16.9861 26.6272C17.2402 26.9652 17.4244 27.3505 17.5279 27.7606C17.6513 28.2404 17.7109 28.7344 17.7054 29.2299C17.7285 29.9394 17.5974 30.6455 17.3209 31.2994Z" fill="#FFC7BD"/>
<path d="M25.3456 32.8856C25.2769 32.8933 25.2078 32.8968 25.1386 32.8962C24.9902 32.9004 24.8425 32.8735 24.7051 32.817C24.5858 32.7635 24.4835 32.6782 24.4094 32.5705C24.3237 32.4428 24.2666 32.2981 24.2418 32.1463C24.2061 31.9446 24.1896 31.7401 24.1925 31.5353V19.4492L22.1811 19.745V32.4229C22.1727 32.7552 22.2263 33.0862 22.3391 33.3989C22.4335 33.6532 22.5892 33.8801 22.7926 34.0595C22.9948 34.2332 23.2343 34.3579 23.4926 34.4242C23.779 34.4986 24.074 34.5351 24.3699 34.5326C24.5277 34.5326 24.6786 34.526 24.8235 34.5132C24.9684 34.5004 25.1094 34.4804 25.2474 34.4538C25.3854 34.4272 25.5 34.4012 25.5921 34.3752L25.7893 32.8173L25.5523 32.8567C25.4741 32.8698 25.4051 32.8794 25.3456 32.8856Z" fill="#FFC7BD"/>
<path d="M36.3775 24.2795H33.9129L30.539 27.9863H29.8118V19.4492L27.8011 19.745V34.3354H29.8118V29.5048H29.8447L33.8731 34.3354H36.4758L31.6932 28.9462L36.3775 24.2795Z" fill="#FFC7BD"/>
<path d="M45.1907 25.5513C44.8122 25.0607 44.3128 24.6768 43.7414 24.4373C43.1066 24.1781 42.4258 24.0506 41.7402 24.0626C41.0496 24.0509 40.3642 24.1853 39.7291 24.4569C39.1514 24.7099 38.6365 25.0869 38.2208 25.5611C37.7924 26.0593 37.4702 26.6396 37.274 27.2666C37.0493 27.9842 36.9396 28.7329 36.949 29.4847C36.9211 30.4348 37.1204 31.3778 37.5303 32.2353C37.9051 32.9783 38.5104 33.5801 39.2556 33.9506C40.13 34.3625 41.0895 34.5618 42.0557 34.5323C42.5204 34.5361 42.9849 34.5065 43.4454 34.4436C43.8305 34.3882 44.2099 34.2991 44.5794 34.1774C44.9457 34.0544 45.3017 33.9027 45.6441 33.7238L45.7821 32.2057C45.5321 32.2977 45.2791 32.3897 45.0228 32.4817C44.7664 32.5738 44.5003 32.6559 44.2245 32.7282C43.9461 32.8011 43.6628 32.8537 43.3767 32.8856C43.0887 32.9188 42.799 32.9353 42.5091 32.9352C41.9914 32.9436 41.4747 32.8873 40.9709 32.7676C40.5647 32.6702 40.1888 32.4738 39.8769 32.1958C39.562 31.8957 39.3309 31.5184 39.2066 31.1015C39.0777 30.6793 39.0055 30.2418 38.9917 29.8005H46.117C46.2141 28.9849 46.1776 28.1589 46.0086 27.355C45.8699 26.7016 45.5908 26.0861 45.1907 25.5513ZM40.222 26.0248C40.6845 25.7435 41.2188 25.603 41.7599 25.6202C42.3014 25.5932 42.8363 25.7495 43.2781 26.0639C43.6707 26.3773 43.9508 26.8098 44.0763 27.2962C44.175 27.6559 44.2234 28.0274 44.2202 28.4003H39.035C39.0716 28.0072 39.1555 27.6199 39.2851 27.2469C39.4536 26.7471 39.7831 26.3173 40.222 26.0248Z" fill="#FFC7BD"/>
<path d="M62.2059 24.4767C61.6683 24.1847 61.0625 24.0418 60.4511 24.0626C59.9205 24.0611 59.3936 24.1512 58.8935 24.3288C58.3857 24.5107 57.9074 24.7665 57.4742 25.088C57.2286 25.27 56.9949 25.4675 56.7746 25.6794C56.5725 25.1858 56.216 24.7708 55.7585 24.4964C55.2144 24.203 54.6019 24.06 53.9841 24.0824C53.4568 24.0826 52.9333 24.1726 52.4362 24.3486C51.926 24.5281 51.4445 24.7804 51.0065 25.0977C50.8648 25.1999 50.7278 25.3107 50.5924 25.4264V24.0833L48.5813 24.3791V34.3361H50.5924V26.8368C50.8294 26.6816 51.0764 26.5423 51.3318 26.4198C51.6446 26.2721 51.9716 26.1565 52.3078 26.0748C52.6176 25.9984 52.9353 25.9586 53.2545 25.9564C53.5473 25.9476 53.839 25.998 54.1119 26.1047C54.3379 26.2002 54.5375 26.3489 54.6938 26.5381C54.8649 26.758 54.983 27.0144 55.0389 27.2873C55.1156 27.6403 55.1519 28.0008 55.1473 28.3619V34.3361H57.1584V27.9475C57.1598 27.5704 57.1344 27.1936 57.0822 26.8201C57.3102 26.6703 57.5462 26.5333 57.7893 26.4096C58.0967 26.2549 58.4207 26.1359 58.7551 26.0547C59.0715 25.9773 59.396 25.9376 59.7216 25.9364C60.0112 25.9292 60.2993 25.9795 60.5694 26.0843C60.7994 26.178 61.0026 26.327 61.1609 26.5183C61.3324 26.7379 61.4504 26.9943 61.5057 27.2673C61.5827 27.6201 61.6192 27.9805 61.6145 28.3415V34.3358H63.6255V27.9278C63.6507 27.182 63.5301 26.4385 63.2706 25.7389C63.0662 25.2114 62.6915 24.7671 62.2059 24.4767Z" fill="#FFC7BD"/>
<path d="M73.2473 31.881C73.0985 31.9714 72.9516 32.0555 72.8034 32.1268C72.5691 32.2415 72.329 32.3436 72.084 32.4328C71.8496 32.5174 71.6089 32.5834 71.3641 32.63C71.1139 32.6768 70.8598 32.6999 70.6053 32.699C70.1882 32.7149 69.774 32.6233 69.4026 32.4331C69.0835 32.2516 68.8364 31.9662 68.7026 31.6244C68.5399 31.2002 68.4628 30.7479 68.4755 30.2938V24.083L66.4645 24.3787V30.6484C66.4401 31.3966 66.571 32.1418 66.8489 32.8369C67.0776 33.3853 67.4885 33.8381 68.0122 34.1186C68.5963 34.4097 69.2432 34.5521 69.8955 34.533C70.3075 34.5358 70.7182 34.4861 71.1176 34.3851C71.499 34.2865 71.8668 34.1407 72.2122 33.9513C72.5676 33.756 72.904 33.5281 73.2174 33.2707C73.2752 33.2237 73.3325 33.1686 73.39 33.1189L73.6808 34.3348H75.2384L75.2581 24.0821L73.2473 24.3778V31.881Z" fill="#FFC7BD"/>
<path d="M84.5642 29.8006C84.3625 29.5863 84.1299 29.4035 83.8741 29.2581C83.6094 29.1065 83.3322 28.9779 83.0456 28.8736C82.8355 28.8079 82.6286 28.7388 82.4249 28.6666C82.2211 28.5943 82.0173 28.5285 81.8133 28.4694C81.6096 28.4102 81.4125 28.3478 81.2219 28.2821C81.0432 28.2213 80.8688 28.1488 80.6997 28.0652C80.5375 27.9791 80.3825 27.8802 80.236 27.7694C80.101 27.6676 79.9872 27.5404 79.9011 27.3949C79.8141 27.2454 79.7696 27.0749 79.7726 26.9019C79.7674 26.7118 79.8153 26.524 79.911 26.3597C80.0139 26.1983 80.1565 26.0659 80.3251 25.9752C80.5314 25.8621 80.7543 25.7821 80.9856 25.7383C81.2747 25.6831 81.5686 25.6568 81.863 25.6598C82.0072 25.6598 82.1653 25.6666 82.3361 25.6794C82.507 25.6922 82.694 25.716 82.8981 25.7488C83.1021 25.7817 83.3053 25.8244 83.509 25.8763C83.7127 25.9282 83.9197 25.9884 84.1304 26.0541C84.3253 26.1141 84.5162 26.1866 84.7018 26.2713L84.8402 24.6739C84.5903 24.569 84.3438 24.4768 84.1008 24.3975C83.858 24.319 83.6112 24.2532 83.3615 24.2003C83.1175 24.1488 82.8706 24.1126 82.6221 24.092C82.3787 24.0722 82.1388 24.0623 81.9024 24.0623C81.3578 24.0568 80.8145 24.1197 80.2856 24.2497C79.8333 24.3598 79.4032 24.5465 79.0139 24.8017C78.661 25.0352 78.3728 25.3539 78.1759 25.7284C77.9699 26.1412 77.8683 26.5982 77.8801 27.0593C77.874 27.3915 77.9275 27.722 78.0379 28.0353C78.1313 28.2983 78.2716 28.5421 78.452 28.755C78.6272 28.9562 78.8295 29.1321 79.0533 29.2775C79.2861 29.4304 79.5338 29.5592 79.7927 29.6619C79.9368 29.7147 80.088 29.7672 80.2462 29.8194C80.4044 29.8715 80.5588 29.921 80.7095 29.9679C80.8602 30.0139 81.0082 30.0597 81.1532 30.1055C81.2974 30.1519 81.439 30.1976 81.577 30.2436C81.715 30.2896 81.8498 30.3323 81.9813 30.3717C82.1577 30.4342 82.329 30.51 82.4939 30.5984C82.6386 30.675 82.7741 30.7676 82.8981 30.8745C83.0072 30.9698 83.0945 31.0875 83.1541 31.2196C83.2145 31.356 83.2449 31.5038 83.2431 31.653C83.25 31.7989 83.2245 31.9446 83.1682 32.0794C83.1119 32.2142 83.0264 32.3348 82.9178 32.4325C82.6736 32.6362 82.382 32.7751 82.07 32.8363C81.7042 32.917 81.3306 32.9568 80.956 32.9547C80.7218 32.9532 80.4881 32.9367 80.2561 32.9053C79.9998 32.8725 79.7302 32.8265 79.4476 32.7673C79.165 32.7082 78.8758 32.6359 78.5798 32.5505C78.2845 32.465 77.9855 32.3698 77.683 32.2649L77.7619 33.9408C78.1034 34.0591 78.4156 34.1544 78.6984 34.2267C78.9813 34.299 79.2507 34.3614 79.5068 34.414C79.7538 34.4652 80.0042 34.4982 80.2561 34.5126C80.499 34.5255 80.7455 34.532 80.9955 34.532C81.5454 34.5348 82.094 34.4785 82.632 34.364C83.1055 34.268 83.5589 34.0914 83.9726 33.8419C84.3455 33.6142 84.6542 33.2952 84.8698 32.9152C85.0954 32.4981 85.2075 32.0291 85.1948 31.5551C85.203 31.2091 85.1463 30.8647 85.0275 30.5396C84.9216 30.266 84.7643 30.0151 84.5642 29.8006Z" fill="#FFC7BD"/>
<path d="M89.3048 19.9517C89.1002 19.8266 88.8646 19.7617 88.6248 19.7644C88.382 19.7625 88.1434 19.8273 87.9348 19.9517C87.7294 20.0723 87.5568 20.2415 87.4323 20.4446C87.3072 20.6492 87.2422 20.885 87.245 21.1249C87.2429 21.3677 87.3077 21.6064 87.4323 21.8149C87.5527 22.0212 87.7262 22.1914 87.9348 22.3078C88.1454 22.426 88.3833 22.4872 88.6248 22.4853C88.8633 22.488 89.0981 22.4268 89.3048 22.3078C89.5078 22.1906 89.6749 22.0202 89.7881 21.8149C89.9064 21.6043 89.9676 21.3664 89.9656 21.1249C89.9683 20.8863 89.907 20.6514 89.7881 20.4446C89.6708 20.2425 89.5046 20.073 89.3048 19.9517Z" fill="#FFC7BD"/>
<path d="M87.5808 34.3351H89.592V24.0824L87.5808 24.3781V34.3351Z" fill="#FFC7BD"/>
<path d="M101.245 24.2795H98.78L95.4061 27.9863H94.6789V19.4492L92.6678 19.745V34.3354H94.6789V29.5048H94.7118L98.7402 34.3354H101.343L96.5603 28.9462L101.245 24.2795Z" fill="#FFC7BD"/>
<path d="M109.092 34.3351H111.695L106.912 28.9459L111.596 24.2795H109.131L105.757 27.9863H105.03V19.4492L103.019 19.745V34.3354H105.03V29.5048H105.063L109.092 34.3351Z" fill="#FFC7BD"/>
</svg>

<svg xmlns="http://www.w3.org/2000/svg" viewBox="0 0 112 35"><path fill="#fff" d="M0 14.333V.335h4.593v13.998H0Zm10.843-11.77 2.641 11.77H8.457L5.303.335h2.82a2.655 2.655 0 0 1 1.764.64c.491.404.829.964.956 1.588Zm3.331 11.77V.335h4.594v13.998h-4.594Zm8.063-8.675a2.738 2.738 0 0 1-1.409-.375 2.778 2.778 0 0 1-1.015-1.015 2.735 2.735 0 0 1-.375-1.41 2.685 2.685 0 0 1 .375-1.4A2.812 2.812 0 0 1 23.637.454c.415.244.761.59 1.005 1.005.251.424.38.908.375 1.4.005.496-.125.983-.375 1.41a2.8 2.8 0 0 1-1.005 1.015c-.424.251-.908.38-1.4.375Zm3.49 8.675V.335h4.594v13.998h-4.594Zm10.409-6.348c.013.013.111.174.296.483.184.308.424.702.72 1.183a386.846 386.846 0 0 1 1.862 3.056c.289.48.617 1.022.986 1.626h-5.047l-.858-1.39c-.256-.414-.529-.86-.817-1.34-.29-.48-.576-.946-.858-1.4a71.148 71.148 0 0 1-.73-1.193 21.112 21.112 0 0 0-.424-.69 2.04 2.04 0 0 1-.334-.986c.019-.338.128-.665.315-.947.078-.131.223-.364.433-.7a216.7 216.7 0 0 0 1.598-2.603l.817-1.35.858-1.4H40l-3.904 6.369c-.12.189-.189.407-.197.631.013.235.095.462.236.65h.001Z"/><path fill="#FFC7BD" d="M0 34.335h2.07v-5.777h5.284l.217-1.715h-5.5v-4.772h7.157v-1.735H0v14ZM17.44 24.694a5.41 5.41 0 0 0-2.672-.63 5.386 5.386 0 0 0-2.692.65 4.547 4.547 0 0 0-1.794 1.834 5.796 5.796 0 0 0-.64 2.8 6.046 6.046 0 0 0 .6 2.79c.378.758.98 1.38 1.726 1.784.802.42 1.697.63 2.602.611a5.559 5.559 0 0 0 2.722-.65 4.597 4.597 0 0 0 1.843-1.854 5.807 5.807 0 0 0 .66-2.84 5.708 5.708 0 0 0-.61-2.71 4.31 4.31 0 0 0-1.745-1.785Zm-.12 6.605a2.681 2.681 0 0 1-1.073 1.233 3.058 3.058 0 0 1-1.578.404 2.804 2.804 0 0 1-1.538-.414 2.78 2.78 0 0 1-1.025-1.242 4.978 4.978 0 0 1-.374-2.05 4.65 4.65 0 0 1 .374-1.992 2.62 2.62 0 0 1 1.055-1.183 3.192 3.192 0 0 1 1.626-.394c.444-.011.884.073 1.292.246.357.161.669.409.907.72.254.338.438.724.542 1.134.123.48.183.973.177 1.469a4.904 4.904 0 0 1-.384 2.07ZM25.346 32.886a1.724 1.724 0 0 1-.207.01 1.06 1.06 0 0 1-.434-.079.713.713 0 0 1-.296-.246 1.071 1.071 0 0 1-.167-.425 3.242 3.242 0 0 1-.05-.61V19.448l-2.01.296v12.678c-.01.332.044.663.157.976.095.254.25.481.454.66.202.174.441.299.7.365.286.075.581.111.877.109.158 0 .309-.007.453-.02.145-.013.286-.033.424-.06.138-.026.253-.052.345-.078l.197-1.558-.237.04a3.405 3.405 0 0 1-.206.029ZM36.377 24.28h-2.464l-3.374 3.706h-.727V19.45l-2.01.296v14.59h2.01v-4.83h.033l4.028 4.83h2.603l-4.783-5.389 4.684-4.667ZM45.19 25.551a3.577 3.577 0 0 0-1.449-1.114 5.06 5.06 0 0 0-2-.374 4.904 4.904 0 0 0-2.012.394 4.3 4.3 0 0 0-1.508 1.104 4.827 4.827 0 0 0-.947 1.706 7.125 7.125 0 0 0-.325 2.218c-.028.95.171 1.893.581 2.75.375.743.98 1.345 1.726 1.716a6.132 6.132 0 0 0 2.8.581c.464.004.929-.025 1.39-.088a6.653 6.653 0 0 0 1.133-.267 7.355 7.355 0 0 0 1.065-.453l.138-1.518c-.25.092-.503.184-.76.276a9.446 9.446 0 0 1-.797.246 5.949 5.949 0 0 1-.848.158c-.288.033-.578.05-.868.05a6.218 6.218 0 0 1-1.538-.168 2.531 2.531 0 0 1-1.094-.572 2.498 2.498 0 0 1-.67-1.094 4.99 4.99 0 0 1-.215-1.302h7.125a7.549 7.549 0 0 0-.108-2.445 4.609 4.609 0 0 0-.818-1.804Zm-4.968.474a2.789 2.789 0 0 1 1.538-.405 2.411 2.411 0 0 1 1.518.444c.393.313.673.746.798 1.232.099.36.147.731.144 1.104h-5.185c.037-.393.12-.78.25-1.153.169-.5.498-.93.937-1.222ZM62.206 24.477a3.432 3.432 0 0 0-1.755-.414 4.615 4.615 0 0 0-1.557.266 5.486 5.486 0 0 0-1.42.759 7.15 7.15 0 0 0-.7.591 2.472 2.472 0 0 0-1.016-1.183 3.473 3.473 0 0 0-1.774-.414c-.527 0-1.05.09-1.548.267a5.611 5.611 0 0 0-1.844 1.077v-1.343l-2.01.296v9.957h2.01v-7.5c.237-.154.484-.294.74-.416.313-.148.64-.264.976-.345a4.07 4.07 0 0 1 .947-.119c.292-.008.584.042.857.149.226.095.425.244.582.433.17.22.289.476.345.75.077.352.113.713.108 1.074v5.974h2.011v-6.388a7.933 7.933 0 0 0-.076-1.128c.228-.15.464-.287.707-.41.308-.155.632-.274.966-.355.316-.078.641-.117.967-.119.29-.007.577.044.847.148.23.094.434.243.592.434.171.22.29.476.345.75.077.352.113.712.108 1.073v5.995h2.012v-6.408a5.737 5.737 0 0 0-.355-2.19 2.54 2.54 0 0 0-1.065-1.261ZM73.247 31.881a5.23 5.23 0 0 1-.444.246 7.372 7.372 0 0 1-.719.306c-.234.084-.475.15-.72.197a4.05 4.05 0 0 1-.759.069 2.435 2.435 0 0 1-1.202-.266 1.602 1.602 0 0 1-.7-.809 3.447 3.447 0 0 1-.228-1.33v-6.211l-2.01.296v6.27a5.42 5.42 0 0 0 .384 2.188 2.58 2.58 0 0 0 1.163 1.282 3.962 3.962 0 0 0 1.883.414 4.85 4.85 0 0 0 1.223-.148 4.75 4.75 0 0 0 1.094-.434 6.566 6.566 0 0 0 1.005-.68c.058-.047.115-.102.173-.152l.29 1.216h1.558l.02-10.253-2.01.296v7.503ZM84.564 29.8a2.948 2.948 0 0 0-.69-.542 5.345 5.345 0 0 0-.828-.384c-.21-.066-.417-.135-.621-.207a10.905 10.905 0 0 0-.612-.198c-.203-.059-.4-.121-.591-.187a4.313 4.313 0 0 1-.522-.217 3.45 3.45 0 0 1-.464-.296 1.295 1.295 0 0 1-.335-.374.948.948 0 0 1-.128-.493c-.006-.19.042-.378.138-.542a1.12 1.12 0 0 1 .414-.385c.206-.113.43-.193.66-.237.29-.055.584-.081.878-.078a6.385 6.385 0 0 1 1.035.089c.204.033.407.075.611.127.204.052.41.112.621.178.195.06.386.133.572.217l.138-1.597a9.634 9.634 0 0 0-.74-.276 7.365 7.365 0 0 0-.738-.198 5.967 5.967 0 0 0-.74-.108 8.875 8.875 0 0 0-.72-.03 6.5 6.5 0 0 0-1.616.188 4.08 4.08 0 0 0-1.272.552 2.514 2.514 0 0 0-.838.926 2.82 2.82 0 0 0-.296 1.331c-.006.332.047.663.158.976.093.263.234.507.414.72.175.201.377.377.601.523.233.152.48.281.74.384.144.053.295.105.453.157.158.053.313.102.464.149a48.038 48.038 0 0 1 .867.276c.138.046.273.088.404.128a3.7 3.7 0 0 1 .513.226c.145.077.28.17.404.277a1.01 1.01 0 0 1 .345.778.986.986 0 0 1-.325.78 1.892 1.892 0 0 1-.848.403c-.366.081-.74.12-1.114.119a5.48 5.48 0 0 1-.7-.05 10.378 10.378 0 0 1-.808-.138c-.283-.059-.572-.131-.868-.217-.296-.085-.594-.18-.897-.285l.079 1.676c.341.118.654.213.936.286.283.072.553.134.809.187.247.051.497.084.75.099.242.013.489.019.739.019a7.674 7.674 0 0 0 1.636-.168 4.219 4.219 0 0 0 1.34-.522c.374-.228.682-.547.898-.927.225-.417.337-.886.325-1.36a2.767 2.767 0 0 0-.167-1.015 2.301 2.301 0 0 0-.464-.74ZM89.305 19.952a1.276 1.276 0 0 0-.68-.188 1.327 1.327 0 0 0-.69.188c-.206.12-.378.29-.503.493-.125.204-.19.44-.187.68-.002.243.063.481.187.69.12.206.294.376.503.493.21.118.448.18.69.177.238.003.473-.058.68-.177.203-.117.37-.288.483-.493.118-.21.18-.449.178-.69a1.335 1.335 0 0 0-.178-.68 1.397 1.397 0 0 0-.483-.493ZM87.58 34.335h2.012V24.082l-2.011.296v9.957ZM101.245 24.28H98.78l-3.374 3.706h-.727V19.45l-2.011.296v14.59h2.01v-4.83h.034l4.028 4.83h2.603l-4.783-5.389 4.685-4.667ZM109.092 34.335h2.603l-4.783-5.39 4.684-4.666h-2.465l-3.374 3.707h-.727V19.45l-2.011.296v14.59h2.011v-4.83h.033l4.029 4.83Z"/></svg>
